packages/fxa-payments-server/src/components/PlanDetails/images/Information.svg

<svg width="31" height="30" viewBox="0 0 31 30" fill="none" xmlns="http://www.w3.org/2000/svg">
<path fill-rule="evenodd" clip-rule="evenodd" d="M15.4727 23.75C20.4574 23.75 24.4984 19.8325 24.4984 15C24.4984 10.1675 20.4574 6.25 15.4727 6.25C10.4879 6.25 6.44694 10.1675 6.44694 15C6.44694 19.8325 10.4879 23.75 15.4727 23.75ZM15.4727 26.25C21.8817 26.25 27.0772 21.2132 27.0772 15C27.0772 8.7868 21.8817 3.75 15.4727 3.75C9.06368 3.75 3.86816 8.7868 3.86816 15C3.86816 21.2132 9.06368 26.25 15.4727 26.25ZM15.4727 13.75C15.1307 13.75 14.8027 13.8817 14.5609 14.1161C14.3191 14.3505 14.1833 14.6685 14.1833 15V18.75C14.1833 19.0815 14.3191 19.3995 14.5609 19.6339C14.8027 19.8683 15.1307 20 15.4727 20C15.8146 20 16.1426 19.8683 16.3844 19.6339C16.6262 19.3995 16.7621 19.0815 16.7621 18.75V15C16.7621 14.6685 16.6262 14.3505 16.3844 14.1161C16.1426 13.8817 15.8146 13.75 15.4727 13.75ZM17.0038 11.25C17.0038 12.0702 16.318 12.735 15.4721 12.735C14.6261 12.735 13.9403 12.0702 13.9403 11.25C13.9403 10.4299 14.6261 9.76501 15.4721 9.76501C16.318 9.76501 17.0038 10.4299 17.0038 11.25Z" fill="#1CC4A0"/>
</svg>

<svg width="31" height="30" fill="none" xmlns="http://www.w3.org/2000/svg"><path fill-rule="evenodd" clip-rule="evenodd" d="M15.473 23.75c4.984 0 9.025-3.918 9.025-8.75s-4.04-8.75-9.025-8.75S6.447 10.168 6.447 15s4.04 8.75 9.026 8.75zm0 2.5c6.409 0 11.604-5.037 11.604-11.25S21.882 3.75 15.473 3.75C9.063 3.75 3.868 8.787 3.868 15s5.196 11.25 11.605 11.25zm0-12.5c-.342 0-.67.132-.912.366a1.231 1.231 0 00-.378.884v3.75c0 .331.136.65.378.884.242.234.57.366.912.366.342 0 .67-.132.911-.366.242-.235.378-.553.378-.884V15c0-.332-.136-.65-.378-.884a1.31 1.31 0 00-.911-.366zm1.53-2.5c0 .82-.685 1.485-1.53 1.485-.847 0-1.533-.665-1.533-1.485 0-.82.686-1.485 1.532-1.485s1.532.665 1.532 1.485z" fill="#1CC4A0"/></svg>
